X: 166
T: Kua saosao
%%abc-version 2.0
%%abcx-abcm2ps-target-version 5.9.1 (29 Sep 2008)
%%abc-creator hum2abc beta
%%abcx-conversion-date 2013/10/02 07:52:29
%%abc-edited-by Helmut Schaffrath
%%humdrum-veritas 4263355617
%%humdrum-veritas-data 3144801750
%%continueall 1
%%barnumbers 0
L: 1/16
M: 2/4
K: G
d2 e dA4 [I:setbarnb 1]| 
e2 d BA4 | 
d2 d2 e2 d B | 
A B A GE4 | 
A2 A2 d2 d2 | 
E2 G2c4 | 
E2 E G E2 D B, | 
A,8 |]  



